!! 00000] TT[WS
!!!OTL: Wangdengyun xiuqi
!!!ARE: Asia, China, Shanxi Dingxiang
!! Ethnic Group: Han
!! WII, 131
!!!SCT: J0601
!!!YEM: Copyright 1995, estate of Helmut Schaffrath.
**kern
*ICvox
*Ivox
*M2/4
*k[f#]
*G:
{8g
8g
8e
8g
=1
4a
8g
8a
=2
8e
8e
8d
8B
=3
4d
4e}
=4
{8a
8b
8dd
8dd
=5
8dd
8b
8a
8b
=6
8a
8g
8e
8g
=7
4d
4r}
==
!!!AGN: Xiaodiao. Qingge, Aisu
!!!ONB: ESAC (Essen Associative Code) Database: CHINA
!!!AMT: simple duple
!!!AIN: vox
!!!EED: Helmut Schaffrath
!!!EEV: 1.0
*-
